svgs/sharp-regular/hand-love.svg

<svg xmlns="http://www.w3.org/2000/svg" viewBox="0 0 512 512"><!--! Font Awesome Pro 6.6.0 by @fontawesome - https://fontawesome.com License - https://fontawesome.com/license (Commercial License) Copyright 2024 Fonticons, Inc. --><path d="M136 0L112 0l0 24 0 237.5-7.5-7.5L76.2 225.7l-17-17-17 17L7 260.9l-7 7 0 9.9 0 42.7 0 9.9 7 7 6.9 6.9L106.5 437c48 48 113.1 75 181 75l8.5 0 24 0 0-1.6c90.3-11.8 160-89 160-182.4c0-3.5-.1-6.9-.3-10.3c.2-1.9 .3-3.8 .3-5.7l0-224 0-24-24 0-80 0-24 0 0 24 0 88-32 0 0-8 0-24-24 0-56 0 0-120 0-24L216 0 136 0zM400 344l0-88 0-40s0 0 0 0l0-104 32 0 0 200c0 .4 0 .9-.1 1.3l-.4 2.6 .2 2.7c.2 3.1 .3 6.3 .3 9.4c0 75.1-60.9 136-136 136l-8.8 0c-55-.1-107.8-22-146.7-60.9L48 310.6l0-22.9 11.2-11.2 11.3 11.3 40.8 40.8 17 17 17-17L153 321l7-7 0-9.9 0-256 32 0 0 96s0 0 0 0l0 24 0 176 0 24 24 0 56 0 24 0 24 0 56 0 24 0 0-24zM352 224l0 32 0 64-32 0 0-96 32 0zM240 320l0-104s0 0 0 0l0-24 32 0 0 8 0 120-32 0z"/></svg>

<svg xmlns="http://www.w3.org/2000/svg" viewBox="0 0 512 512"><!--! Font Awesome Pro 6.4.0 by @fontawesome - https://fontawesome.com License - https://fontawesome.com/license (Commercial License) Copyright 2023 Fonticons, Inc. --><path d="M136 0H112V24 261.5l-7.5-7.5L76.2 225.7l-17-17-17 17L7 260.9l-7 7v9.9 42.7 9.9l7 7 6.9 6.9L106.5 437c48 48 113.1 75 181 75H296h24v-1.6c90.3-11.8 160-89 160-182.4c0-3.5-.1-6.9-.3-10.3c.2-1.9 .3-3.8 .3-5.7V88 64H456 376 352V88v88H320v-8V144H296 240V24 0H216 136zM400 344V256 216h0V112h32V312c0 .4 0 .9-.1 1.3l-.4 2.6 .2 2.7c.2 3.1 .3 6.3 .3 9.4c0 75.1-60.9 136-136 136l-8.8 0c-55-.1-107.8-22-146.7-60.9L48 310.6V287.8l11.2-11.2 11.3 11.3 40.8 40.8 17 17 17-17L153 321l7-7V304 48h32v96h0v24V344v24h24 56 24 24 56 24V344zM352 224v32 64H320V224h32zM240 320V216h0V192h32v8V320H240z"/></svg>
